X:431
%%etbk:tnset id:2,pos:1,rep:3x,ant:
%%etbk:wsite http://www.thesession.org/tunes/display/4188
%%etbk:video src:ytube,cde:pe__q4zIrAY,desc:
%%etbk:video src:ytube,cde:A_HwIaRltKo,desc:
%%etbk:pldat 2016-07-26T16:57,2016-07-25T18:20,2016-07-19T20:54,2016-07-15T14:17,2016-03-14T18:06,2015-11-25T15:59,2015-05-31T12:02,2015-04-21T17:12,2015-03-23T18:18,2015-03-06T17:12,2015-01-18T10:55,2015-01-17T14:35,2014-12-27T14:56,2014-12-20T14:37,2014-12-02T17:30,2014-11-26T16:50,2014-11-19T17:11,2014-11-17T18:47,2014-09-11T18:31,2014-09-09T18:21,2014-09-08T17:56,2014-07-05T14:31,2014-05-28T16:56,2014-05-23T16:42,2014-05-19T18:03,2014-05-17T15:14,2014-05-14T16:51,2014-05-13T18:21,2014-05-12T18:00,2014-05-11T12:42,2014-05-08T18:33,2014-05-07T15:36,2014-05-06T15:37,2014-04-08T17:49,2014-03-27T18:39,2014-03-22T16:01,2014-02-26T18:03,2014-02-19T16:36,2014-02-15T16:38,2014-02-06T17:36,2013-11-17T15:32,2013-11-07T15:18,2013-11-05T18:01,2013-10-08T16:50,2013-10-02T16:51,2013-08-26T18:33,2013-05-10T15:38
T: Lucy Farr's Highland Fling
N: http://www.thesession.org/discussions/display/28476/
Z: Piano Box Version by Martin Fleischmann
H: Created 2013-02-19 /  Last Modified 2013-02-19
M: 4/4
L: 1/8
R: Fling
K: Fmaj
|: "F"!3!A2{B}AG !3!A!5!ccA | "C"!2!G{B}GGF !2!GA!4!BG | "F"!3!A!2!A!3!AG !3!A!5!ccA | "C"!2!GFGA "F"!1!F!2!F!1!F2 :|
|: "F"!3!A!4!c !3!c!4!c !5!.d2 !4!c!3!A | !1!F!3!A!5!cA "C"!2!GAFG| "F"!3!A!4!c !3!c!4!c !5!.d2 !4!c!3!A | "C"!2!G{B}GGA "F"!1!F4  |
"F"!3!A2 !5!c!5!c A2 cc | !3!A2 !5!c!3!A !4!B!2!G!3!A!1!F | "C"!2!G2{B}GF !2!GABG | !5!cAGA "F"!1!F4 :|


